static/assets/images/networks/zklink-nova-mono.svg

<svg width="250" height="256" viewBox="0 0 250 256" fill="none" xmlns="http://www.w3.org/2000/svg">
<path fill-rule="evenodd" clip-rule="evenodd" d="M125.04 0L58.7157 38.4732V106.555L0 140.615V217.526L66.3242 256L125 221.963L183.676 256L250 217.526V140.615L191.364 106.601V38.4732L125.04 0ZM74.0121 47.3111L125.04 17.7108L176.067 47.3111V106.547L136.095 129.734C133.149 127.221 129.331 125.704 125.159 125.704C120.942 125.704 117.085 127.254 114.127 129.817L74.0121 106.547V47.3111ZM108.356 144.235L66.3242 119.853L15.2963 149.453V208.689L66.3242 238.289L117.342 208.694V157.612C112.407 155.024 108.907 150.059 108.356 144.235ZM132.648 157.779V208.689L183.676 238.289L234.704 208.689V149.453L183.706 119.87L141.976 144.077C141.462 150.098 137.801 155.218 132.648 157.779Z" fill="black"/>
<path fill-rule="evenodd" clip-rule="evenodd" d="M190.952 106.852L124.951 68.5627L58.9488 106.852V183.432L124.951 221.721L190.952 183.432V106.852ZM174.515 116.679L125.139 88.023L75.7628 116.679V173.993L125.139 202.649L174.515 173.993V116.679Z" fill="black"/>
</svg>

<svg xmlns="http://www.w3.org/2000/svg" fill="none" viewBox="0 0 250 256"><path fill="#000" fill-rule="evenodd" d="M125.04 0 58.716 38.473v68.082L0 140.615v76.911L66.324 256 125 221.963 183.676 256 250 217.526v-76.911l-58.636-34.014V38.473zM74.012 47.311l51.028-29.6 51.027 29.6v59.236l-39.972 23.187a16.8 16.8 0 0 0-10.936-4.03 16.8 16.8 0 0 0-11.032 4.113l-40.115-23.27zm34.344 96.924-42.032-24.382-51.028 29.6v59.236l51.028 29.6 51.018-29.595v-51.082c-4.935-2.588-8.435-7.553-8.986-13.377m24.292 13.544v50.91l51.028 29.6 51.028-29.6v-59.236l-50.998-29.583-41.73 24.207c-.514 6.021-4.175 11.141-9.328 13.702" clip-rule="evenodd"/><path fill="#000" fill-rule="evenodd" d="m190.952 106.852-66.001-38.29-66.002 38.29v76.58l66.002 38.289 66.001-38.289zm-16.437 9.827-49.376-28.656-49.376 28.656v57.314l49.376 28.656 49.376-28.656z" clip-rule="evenodd"/></svg>
